X: 2
T: String Quartet No. 1 in F Major, Op. 18, No. 1 mvt 2
C: Ludwig van Beethoven
%%abc-version 2.0
%%abcx-abcm2ps-target-version 5.9.1 (29 Sep 2008)
%%abc-creator hum2abc beta
%%abcx-conversion-date 2021/01/27 10:01:15
%%abc-edited-by Craig Stuart Sapp
%%abcx-initial-encoding-date 2004/09/06/
%%gracespace 0 6 6
%%humdrum-veritas 2961874480
%%humdrum-veritas-data 2492678292
%%linebreak <none>
%%barnumbers 0
L: 1/8
M: 9/8
N: Derived from quartet01-2.krn
Q: "Adagio affettuoso ed appassionato" 1/8=108
%%staves [1 2 3 4]
V: 1 clef=treble
V: 2 clef=treble
V: 3 clef=alto
V: 4 clef=bass
K: F
[V:1] z3z3z3 [I:setbarnb 2]| 
[V:2] .A,.A,.A, .D.D.D .^C.C.C | 
[V:3] .F,.F,.F, .A,.A,.A, .G,.G,.G, | 
[V:4] .D,.D,.D, .F,.F,.F, .E,.E,.E, | 
[V:1] A6-A3- | 
[V:2] DA,A, DDD ^CCC | 
[V:3] F,F,F, A,A,A, G,G,G, | 
[V:4] D,D,D, F,F,F, E,E,E, | 
[V:1] A3d3e3 | 
[V:2] DA,A, DDD [A,E][A,E][A,E] | 
[V:3] F,F,F, A,A,A, ^CCC | 
[V:4] D,D,D, F,F,F, A,A,A, | 
[V:1] f3-f2e/d/ d/e//d//^c/d/f/e/ | 
[V:2] FA,A, A,A,A, B,B,B, | 
[V:3] DF,F, F,F,F, F,F,F, | 
[V:4] DD,D, D,D,D, D,D,D, | 
[V:1] d3^c2>-c2c/d/e/f/ | 
[V:2] B,B,B, B,BB BGE | 
[V:3] G,G,G, G,G,G, G,G,G, | 
[V:4] E,E,E, E,E,E, E,E,E, | 
[V:1] g2>-g2{/a}g/^f/g/a/b2^c | 
[V:2] ^CCC CCC CCC | 
[V:3] G,G,G, G,G,G, G,G,G, | 
[V:4] E,E,E, E,E,E, E,E,E, | 
[V:1] e3d2>-d2ef | 
[V:2] ^CDD DDD DCD | 
[V:3] A,A,A, A,A,A, A,G,F, | 
[V:4] F,F,F, F,F,F, F,E,D, | 
[V:1] f3e2>-e2fd | 
[V:2] DDD DDD DDD | 
[V:3] B,B,B, B,B,B, =B,B,B, | 
[V:4] G,G,,G,, G,,G,,G,, ^G,,G,,G,, | 
[V:1] ^c2z z ag fed | 
[V:2] ^C2z z AG FED | 
[V:3] E,A,.A,2<A,2-A,B,=B, | 
[V:4] A,,2z z ^C,E, D,G,,^G,, | 
[V:1] ^c2za2g fed | 
[V:2] ^C2zA2G FED | 
[V:3] E,2>-E,2.A,.A, A,B,=B, | 
[V:4] A,,B,,^G,, A,,^C,E, D,=G,,^G,, | 
[V:1] ^c2zz2zB3 | 
[V:2] ^C2zz2zF3 | 
[V:3] E,2zz2zD3 | 
[V:4] A,,2zz2zA,3- | 
[V:1] A2zz2zB,3 | 
[V:2] E2zz2zB,3 | 
[V:3] ^C2zz2zB,3 | 
[V:4] A,2zz2zB,,3 | 
[V:1] A,^CE AB,/A,/B,/A,/ C/A,/D/A,/E/A,/ | 
[V:2] A,2z z ^CD EFG | 
[V:3] A,2>-A,2G,F, E,D,^C, | 
[V:4] A,,^C,E,2<A,2-A,.A,.A, | 
[V:1] D.A.A .A.A.A .^c.c.c | 
[V:2] .F.F.F DDD GGG | 
[V:3] .D,.D,.D, F,F,F, E,E,E, | 
[V:4] [K:clef=tenor]A,6-A,3 | 
[V:1] dAA AAA ^ccc | 
[V:2] FFF DDD GGG | 
[V:3] D,D,D, F,F,F, A,A,A, | 
[V:4] A,3D3E3 | 
[V:1] d2zz2zz2z | 
[V:2] A3B3=B3 | 
[V:3] D,DD DDD _DDD | 
[V:4] F6-F_AG | 
[V:1] b6-b_d'c' | 
[V:2] cGG GGG Gee | 
[V:3] C,C,C, C,C,C, C,C,C, | 
[V:4] F2>-F2E_D CB,G,[K:clef=bass] | 
[V:1] b2>a2_gf _ecA | 
[V:2] _e6-e_gf | 
[V:3] CCC CCC C_EC | 
[V:4] _G,2>F,2F,,F,, F,,F,,F,, | 
[V:1] _A3_a3-a/g/b/a/g/f/ | 
[V:2] _e3d2>-d2[_A,F][A,F] | 
[V:3] F,6-F,DD | 
[V:4] B,,B,,B,, B,,B,,B,, =B,,B,,B,, | 
[V:1] e2zz2zz2z | 
[V:2] [G,E] =Bc ^FG^D E=B,C | 
[V:3] C2zz2zz2z | 
[V:4] C,2zz2zz2z | 
[V:1] z ef AB2-B.=B.B | 
[V:2] _D6-D.D.D | 
[V:3] z2z z EF G_AF | 
[V:4] z3z3z3 | 
[V:1] c2zz2zz2z | 
[V:2] C2zz2zz2z | 
[V:3] E2zz2zz2z | 
[V:4] C,=B,C ^F,G,^D, E,=B,,C, | 
[V:1] z =bc' ^fg^d e=Bc | 
[V:2] z2zz2z z/ C/=B,/C/E/G/ | 
[V:3] C,E,G, C,E,G, C,E,G, | 
[V:4] B,,6-B,,3 | 
[V:1] z =bc' ^gae f=Bc | 
[V:2] A2zz2z z/ C/=B,/C/F/A/ | 
[V:3] C,F,A, C,F,A, C,F,A, | 
[V:4] A,,6A,,3 | 
[V:1] z ab geB GEB, | 
[V:2] B2zz2z z/ E/c/B/c/B/ | 
[V:3] C,G,B, C,G,B, C,G,B, | 
[V:4] E,,6C,,3 | 
[V:1] A,2zz2zz2z | 
[V:2] c3B2>A2 {/B} A/G/A/B/ | 
[V:3] E,CC GCC FCC | 
[V:4] F,,2zz2zz2z | 
[V:1] d'3c'2>b2{/c'}b/a/b/c'/ | 
[V:2] G2zz2zz2z | 
[V:3] ECC FCC GCC | 
[V:4] B,3A,3E,3 | 
[V:1] a2zz2zz2z | 
[V:2] cf/e/d/c/ c/B/g/e/c/B/ B/A/f/c/B/A/ | 
[V:3] ACC ECC FCC | 
[V:4] F,2zz2zz2z | 
[V:1] d'g'/f'/e'/d'/ d'/c'/f'/e'/d'/c'/ c'/b/g'/e'/c'/b/ | 
[V:2] GC.C AC.C BC.C | 
[V:3] E3F3G3 | 
[V:4] B,3A,3E,3 | 
[V:1] a/^g/a/=g/f/e/ d/^c/d/=c/B/A/ G/^F/G/=F/E/D/ | 
[V:2] [C2A2]zz2zz2z | 
[V:3] F2zz2zz2z | 
[V:4] F,2zz2zz2z | 
[V:1] ^C2D/E/F2G/A/B3- | 
[V:2] z2zD2E/^F/G3- | 
[V:3] A,3-A,2D/C/ B,/A,/B,/A,/G,/F,/ | 
[V:4] A,/^G,/A,/=G,/F,/E,/ D,/^C,/D,/=C,/B,,/A,,/ G,,/^F,,/G,,/=F,,/E,,/D,,/ | 
[V:1] B6_A3 | 
[V:2] G/F/E/F/G/F/ E/F/G/F/E/G/F3 | 
[V:3] E,/F,/G,/F,/E,/F,/ G,/F,/E,/F,/G,/E,/ F,/E,/F,/G,/_A,/F,/ | 
[V:4] C,,3C,3_D,3 | 
[V:1] _G3F2>-F2=GE | 
[V:2] _D/C/D/C/D/C/=B,3_B,3 | 
[V:3] _D,3F,/E,/F,/E,/F,/E,/C2C | 
[V:4] B,,3_D,3C,3 | 
[V:1] F2zz2d'/^c'/d'/=c'/b/a/ z | 
[V:2] A,2z a/^g/a/=g/f/e/ d/^c/d/=c/B/A/ | 
[V:3] c/=B/c/_B/A/G/ F/E/F/_E/D/C/ B,/A,/B,/A,/G,/F,/ | 
[V:4] .F,,2zz2zB,,2C,/D,/ | 
[V:1] g3_g3f3- | 
[V:2] G_E.EE6 | 
[V:3] _E,B,B,C6 | 
[V:4] _E,/D,/E,/D,/C,/B,,/ A,,/B,,/A,,/B,,/C,/B,,/ A,,/^G,,/A,,/F,,/G,,/A,,/ | 
[V:1] fb.b2<b2_a3 | 
[V:2] _D_d.dc6 | 
[V:3] B,>F=E/F/G3F3 | 
[V:4] B,,/A,,/B,,/_A,,/G,,/F,,/ E,,/C,,/E,,/G,,/C,/E,/ F,/E,/F,/G,/_A,/F,/ | 
[V:1] _g3f2>-f2=ge | 
[V:2] _d/c/d/c/d/c/=B3_B3 | 
[V:3] B,3F,/E,/F,/E,/F,/_A,/C2C | 
[V:4] B,,3_D,3C,3 | 
[V:1] fCCC2zz2z | 
[V:2] AA,A,A,2zz2z | 
[V:3] c3=B/c/d/c/^G/A/ _B/A/E/F/=G/F/ | 
[V:4] F,,F,F,F,2zz2z | 
[V:1] EEEE2zz2z | 
[V:2] g3^f/g/a/g/^d/e/ =f/e/=B/c/=d/c/ | 
[V:3] B,B,B,B,2zz2z | 
[V:4] F,,F,F,F,2zz2z | 
[V:1] c'3=b/c'/d'/c'/^g/a/ _b/a/e/f/=g/f/ | 
[V:2] cccc2zz2z | 
[V:3] AAAA2zz2z | 
[V:4] F,FFF2zz2z | 
[V:1] ^c/d/e/d/A/B/ =c/B/^F/G/A/G/ F/G/A/G/F/G/ | 
[V:2] z3z3z3 | 
[V:3] z3z3z3 | 
[V:4] z3z3z3 | 
[V:1] B2A2<G2-GAB | 
[V:2] z2zG2FE2G, | 
[V:3] G,2F,E,2D,C,2E, | 
[V:4] C,4>-C,4B,, | 
[V:1] c2d/e/f2>-f2AA | 
[V:2] C2D/E/F2>-F2FG | 
[V:3] F,2B,2<A,2-A,DE | 
[V:4] A,,2G,,F,,2E,,D,,2^C,, | 
[V:1] A2{/B2A2G2A2} c/B/A3-A>Gd3//c// | 
[V:2] F2G2<F2E3 | 
[V:3] D2D2<C2B,3 | 
[V:4] D,,D,B,,2<C,2C,,3 | 
[V:1] F2zF2zz2z | 
[V:2] C2zC2zz2z | 
[V:3] A,2zA,2zz2z | 
[V:4] F,,2zF,2zz2z | 
[V:1] c'3=b/c'/d'/c'/^g/a/ _b/a/e/f/=g/f/ | 
[V:2] [A,2F2]z[A2f2]zz3 | 
[V:3] C2zc2zz2z | 
[V:4] _E,2z_E2zz2z | 
[V:1] c'3=b/c'/^g/a/^e/^f/ ^c/d/=B/=c/A/^F/ | 
[V:2] [A,2^F2]z[A2^f2]zz2z | 
[V:3] C2zc2zz2z | 
[V:4] D,2zD2zz2z | 
[V:1] [D6d6]-[D3d3] | 
[V:2] D3G3A3 | 
[V:3] D,3G,3A,2z | 
[V:4] G,,G,,G,, B,,B,,B,, ^F,,F,,F,, | 
[V:1] d//^c//d//^f//g//f//g//a//.b[D6d6] | 
[V:2] B3-B2A/G/ G/A//G//^F/G/B/A/ | 
[V:3] B,3-B,2A,/G,/ G,/A,//G,//^F,/G,/B,/A,/ | 
[V:4] G,,G,,G,, B,,B,,B,, D,D,D, | 
[V:1] d//^c//d//e//^f//e//f//g//.a[D6d6] | 
[V:2] G3^F2>-F2F/G/A/B/ | 
[V:3] G,3^F,2>-F,2F,/G,/A,/B,/ | 
[V:4] A,,A,,A,, C,C,C, D,D,D, | 
[V:1] d//^c//d//e//^f//e//f//g//.a^F6 | 
[V:2] c3-c2d/c/ =B/c/d/c/_e/d/ | 
[V:3] C3-C2D/C/ =B,/C/D/C/_E/D/ | 
[V:4] ^F,,F,,F,, A,,A,,A,, D,D,D, | 
[V:1] d//^c//d//_e//f//e//f//g//._aF6 | 
[V:2] c3=B2>-B2B/c/d/_e/ | 
[V:3] C3=B,2>-B,2B,/C/D/_E/ | 
[V:4] F,,F,,F,, _A,,A,,A,, D,D,.C, | 
[V:1] g//^f//g//a//=b//a//b//c'// .d'2<=B,2-B,B,G | 
[V:2] f2>-f2f/d/=B/G/ ^F/G/_A/G/=F/D/ | 
[V:3] F2>-F2-F/D/=B,/G,/ ^F,/G,/_A,/G,/=F,/D,/ | 
[V:4] =B,,B,,B,, D,D,D, G,,G,,G,, | 
[V:1] G3c3d3 | 
[V:2] .[C_E].[CE].[C2E2]<[C2E2][C3E3] | 
[V:3] _E,2zz2zz2z | 
[V:4] C,//=B,,//C,//D,//_E,//D,//E,//F,//.G,z2zz2z | 
[V:1] _e2zz2zz2z | 
[V:2] [C3_E3][C3E3][C3E3] | 
[V:3] _E,3_A,3B,3 | 
[V:4] _A,,//G,,//A,,//B,,//C,//=B,,//C,//D,//._E,z2zz2z | 
[V:1] d3a3d'3 | 
[V:2] [C3D3][C3D3][C3D3] | 
[V:3] C2zz2zz2z | 
[V:4] ^F,,//E,,//F,,//G,,//A,,//G,,//A,,//B,,//.C,z2zz2z | 
[V:1] b2zz2zz2z | 
[V:2] [B,3D3][B,3D3][B,3D3] | 
[V:3] D,3G,3A,3 | 
[V:4] G,,//^F,,//G,,//A,,//B,,//A,,//B,,//C,//.D,z2zz2z | 
[V:1] B3_e3f3 | 
[V:2] G3[G3B3][F3B3] | 
[V:3] B,3_E3D3 | 
[V:4] _E,,//D,,//E,,//F,,//G,,//F,,//G,,//_A,,//.B,,z2zz2z | 
[V:1] g2zz2zz2z | 
[V:2] [G2B2]zz2zz2z | 
[V:3] [^C2E2]zz2zz2z | 
[V:4] ^C,2zz2zz2z | 
[V:1] f2zz2zz2z | 
[V:2] [F2A2]zz2zz2z | 
[V:3] D2zz2zz2z | 
[V:4] D,2zz2zz2z | 
[V:1] e2zz2zz2z | 
[V:2] D2zz2zz2z | 
[V:3] B,2zz2zz2z | 
[V:4] G,,2zz2zz2z | 
[V:1] A2zz2zz2z | 
[V:2] ^C2zz2zz2z | 
[V:3] G,2zz2zz2z | 
[V:4] A,,2zz2zz2z | 
[V:1] z3z3z3 | 
[V:2] z/ A,/B,/A,/B,/A,/ z/ A,/D/A,/D/A,/ z/ A,/^C/A,/C/A,/ | 
[V:3] .F,.F,.F, A,A,A, G,G,G, | 
[V:4] .D,.D,.D, F,F,F, E,E,E, | 
[V:1] A6-A3- | 
[V:2] z/ A,/B,/A,/B,/A,/ z/ A,/D/A,/D/A,/ z/ A,/^C/A,/C/A,/ | 
[V:3] F,F,F, A,A,A, G,G,G, | 
[V:4] D,D,D, F,F,F, E,E,E, | 
[V:1] A3d3e3 | 
[V:2] z/ A,/B,/A,/B,/A,/ z/ A,/D/A,/D/A,/ z/ A,/E/A,/E/A,/ | 
[V:3] F,F,F, A,A,A, ^CCC | 
[V:4] D,D,D, F,F,F, A,A,A, | 
[V:1] f3-f2e/d/ d/e//d//^c/d/f/e/ | 
[V:2] z/ F/A/F/A/F/ z/ F/A/F/A/F/ z/ F/B/F/B/F/ | 
[V:3] z/ F,/A,/F,/A,/F,/ z/ F,/A,/F,/A,/F,/ z/ F,/B,/F,/B,/F,/ | 
[V:4] D,,D,D, D,,D,D, D,,D,D, | 
[V:1] d3^c2>-c2c/d/e/f/ | 
[V:2] G//^F//G//F//G//F//G//A//.B G//F//G//F//G//F//G//A//.B G//F//G//A//B//A//B//A//G//=F//E//D// | 
[V:3] G,//^F,//G,//F,//G,//F,//G,//A,//.B, G,/F,//G,//F,//G,//F,//G,//A,//.B, G,//F,//G,//A,//B,//A,//B,//A,//G,//=F,//D,// | 
[V:4] E,,E,E, E,,E,E, E,,E,E, | 
[V:1] g2>-g2{/a}g/^f/g/a/b2^c | 
[V:2] .^C/ C/B/C/B/C/ z/ C/B/C/B/C/ z/ C/B/C/B/C/ | 
[V:3] .^C,/E,/G,/E,/G,/E,/ z/ E,/G,/E,/G,/E,/ z/ E,/G,/E,/G,/E,/ | 
[V:4] E,,E,E, E,,E,E, E,,E,E, | 
[V:1] e3d2>-d2ef | 
[V:2] A//^G//A//G//A//=G//F//E//.D A//^G//A//G//A//=G//F//E//.D A//^G//A//G//A//=G//F//E//.D | 
[V:3] A,//G,//A,//G,//A,//G,//F,//E,//.D, A,//^G,//A,//G,//A,//=G,//F,//E,//.D, A,//^G,//A,//G,//A,//=G,//_F,//E,//.D, | 
[V:4] F,,F,F, F,,F,F, F,,F,F, | 
[V:1] f3e2>-e2fd | 
[V:2] z/ D/E/D/E/D/ z/ D/E/D/E/D/ z/ D/F/D/F/D/ | 
[V:3] z/ B,/D/B,/D/B,/ z/ B,/D/B,/D/B,/ z/ B,/D/B,/D/B,/ | 
[V:4] G,,G,G, G,,G,G, ^G,,^G,G, | 
[V:1] ^c2z z ag fed | 
[V:2] ^C2z z AG FED | 
[V:3] E,.A,.A,2<A,2-A,B,=B, | 
[V:4] A,,2z z ^C,E, D,G,,^G,, | 
[V:1] ^c2za2g fed | 
[V:2] ^C2zA2G FED | 
[V:3] E,2>-E,2.A,.A, A,B,=B, | 
[V:4] A,,B,,^G,, A,,^C,E, D,=G,,^G,, | 
[V:1] ^c2zz2zB3 | 
[V:2] ^C2zz2zF3 | 
[V:3] E,2zz2zD3 | 
[V:4] A,,2zz2zA,3 | 
[V:1] A2zz2zB,3 | 
[V:2] E2zz2zB,3 | 
[V:3] ^C2zz2zB,3 | 
[V:4] A,2zz2zB,,3 | 
[V:1] A,^CE AA,=B, CDE | 
[V:2] A,^CE ACD E^FG | 
[V:3] A,^CE2<A2-A.A.A | 
[V:4] A,,^C,E, A,G,^F, E,D,C, | 
[V:1] D2zz2zz2z | 
[V:2] ^FA,.A, EA,.A, DA,.A, | 
[V:3] A3G2>^F2 {/G} .F/E/F/G/ | 
[V:4] D,2zz2zz2z | 
[V:1] b3a2>g2{/a}g/^f/g/a/ | 
[V:2] ^CA,.A, DA,.A, EA,.A, | 
[V:3] E2zz2zz2z | 
[V:4] G,3^F,3^C,3 | 
[V:1] ^f2zz2zz2z | 
[V:2] ^FA,.A, ^CA,.A, DA,.A, | 
[V:3] Ad/^c/=B/A/ A/G/e/^d/A/G/ G/^F/=d/A/G/F/ | 
[V:4] D,2zz2zz2z | 
[V:1] =be'/d'/^c'/b/ b/a/d'/c'/b/a/ a/g/e'/c'/a/g/ | 
[V:2] ^CA,A, DA,.A, EA,.A, | 
[V:3] E3^F3G3 | 
[V:4] G,3^F,3^C,3 | 
[V:1] ^f/^e/f/=e/d/^c/ B/^A/B/=A/G/^F/ E/^D/E/=D/^C/=B,/ | 
[V:2] A,2zz2zz2z | 
[V:3] ^F2zz2zz2z | 
[V:4] D,2zz2zz2z | 
[V:1] ^A,2=B,/^C/D2E/^F/ .G.G.G | 
[V:2] z2z=B,2^C/D< EB,/C/D/ | 
[V:3] ^F,3-F,2=B,- B,/A,/G,/F,/E,/D,/ | 
[V:4] F,/^E,/F,/=E,/D,/^C,/ =B,,/^A,,/B,,/=A,,/G,,/^F,,/ E,,/B,,/E,/D,/C,/B,,/ | 
[V:1] G6F3 | 
[V:2] E/D/^C/D/E/D/ C/D/E/D/C/E/D3 | 
[V:3] ^C,/D,/E,/D,/C,/D,/ E,/D,/C,/D,/E,/C,/ D,/C,/D,/E,/F,/D,/ | 
[V:4] A,,6B,,3 | 
[V:1] _E3D2>-D2=E^C | 
[V:2] B,/A,/B,/A,/B,/A,/^G,3=G,2G | 
[V:3] G,3D,/^C,/D,/C,/D,/F,/A,2A | 
[V:4] G,,3B,,3A,,3 | 
[V:1] D2zz2z =b/^a/b/=a/g/^f/ | 
[V:2] ^F2z f/^e/f/=e/d/^c/ B/^A/B/=A/G/F/ | 
[V:3] A/^G/A/=G/^F/E/ D/^C/D/=C/=B,/A,/G,2A,/B,/ | 
[V:4] D,2zz2z G,/^F,/G,/F,/E,/D,/ | 
[V:1] e3_e3d3- | 
[V:2] E3A3-A>^FG/A/ | 
[V:3] C6-CCC | 
[V:4] C,/B,,/C,/B,,/A,,/G,,/ ^F,,/G,,/F,,/G,,/A,,/G,,/ F,,/E,,/F,,/D,,/E,,/F,,/ | 
[V:1] dg.g2<g2f3 | 
[V:2] B3A2>-A2.A.A | 
[V:3] B,>DE/F/E3D3 | 
[V:4] G,,/B,/G,/F,/E,/D,/ ^C,/=B,,/C,/A,,/B,,/C,/ D,/C,/D,/A,,/F,,/D,,/ | 
[V:1] _e3.d2>-d2=e^c | 
[V:2] B/A/B/A/B/A/^G3=G3 | 
[V:3] G,3D,/^C,/D,/C,/D,/F,/A,2A, | 
[V:4] G,,3B,,3A,,3 | 
[V:1] d^FFF2zz2z | 
[V:2] ^FA,A,A,2zz2z | 
[V:3] A3^G/A/=B/A/^E/^F/ =G/F/^C/D/=E/D/ | 
[V:4] D,,D,D,D,2zz2z | 
[V:1] [A,G][A,G][A,G][A,2G2]zz2z | 
[V:2] e3^d/e/^f/e/^B/^c/ =d/c/^G/A/=B/A/ | 
[V:3] ^CCCC2zz2z | 
[V:4] D,,D,D,D,2zz2z | 
[V:1] a3^g/a/=b/a/^e/^f/ =g/f/^c/d/=e/d/ | 
[V:2] .A.A.AA2zz2z | 
[V:3] ^FFFF2zz2z | 
[V:4] D,DDD2zz2z | 
[V:1] ^A/=B/^c/B/^F/G/ =A/G/^D/E/F/E/ D/E/F/E/D/E/ | 
[V:2] z3z3z3 | 
[V:3] z3z3z3 | 
[V:4] z3z3z3 | 
[V:1] G2^F2<E2-E FG & A,3-A,3-A,3 | 
[V:2] z2zE2D^C2.C | 
[V:3] E2D^C2=B,A,2E, | 
[V:4] A,,4>-A,,4G,, | 
[V:1] A2=B/^c/d2>-d2^F.F | 
[V:2] A,2=B,/^C/D2>-D2DE | 
[V:3] D,2G,2<^F,2-F,=B,^C | 
[V:4] ^F,,2E,, D,,D,^C,=B,,2^A,, | 
[V:1] ^F2{/G2F2E2F2} A/G/F3-F>E=B3//A// | 
[V:2] D2E2<D2^C3 | 
[V:3] =B,2.B,2<A,2G,3 | 
[V:4] =B,,2G,,2<=A,,2-A,,3 | 
[V:1] D2zz2zz2z | 
[V:2] D/[A,/D/] [A,/D/][A,/D/] [A,/D/][A,/D/][A,3D3]^C3 | 
[V:3] D,/D,/D,/D,/D,/D,/ F,/F,/F,/F,/F,/F,/[E,3G,3] | 
[V:4] D,2zz2zz2z[K:clef=tenor] | 
[V:1] A4>-A4-A/(7:4:7A/8B/8c/8d/8e/8f/8g/8 | 
[V:2] F3[A,3D3]^C3 | 
[V:3] D,3F,3[E,3G,3] | 
[V:4] A,6-A,3- | 
[V:1] a4>-a4-a/(7:4:7a/8=b/8^c'/8d'/8e'/8f'/8g'/8 | 
[V:2] F3[A,3D3]^C3 | 
[V:3] D,3F,3A,3 | 
[V:4] A,3D3E3 | 
[V:1] a'2zD2zz2z | 
[V:2] [A,3F3][A,3F3][B,3F3] | 
[V:3] D,3.D,3D,3 | 
[V:4] F3F2E/D/ D/E//D//^C/D/F/E/ | 
[V:1] g//^f//g//f//g//f//g//a//.b g//f//g//f//g//f//g//a//.b g//f//g//a//b//a//b//a//g//=f//e//d// | 
[V:2] B,/ G//^F//G//F//G//A//.B G//F//G//F//G//F//G//A//.B G//F//G//A//B//A//B//A//G//=F//E//.D// | 
[V:3] [E,3G,3][E,3G,3][E,3G,3] | 
[V:4] D3^C2>-C2C/D/E/F/ | 
[V:1] ^c2zz2zz2z | 
[V:2] .^C.g.e .^c.G.E .C.G,.B | 
[V:3] [E,3G,3][E,3G,3][E,3G,3] | 
[V:4] G2>G2 {/A} G/^F/G/A/B2^C | 
[V:1] a//^g//a//g//a//=g//f//e//.d a//^g//a//g//a//=g//f//e//.d a//^g//a//g//a//=g//f//e//d//e//f//d// | 
[V:2] A//^G//A//G// A//=G//F//E// .D A//^G//A//G// A//=G//F//E// .D A//^G//A//G// A//=G//F//E// D//E//F//D// | 
[V:3] [F,3A,3][F,3A,3][F,3A,3] | 
[V:4] E3D2>-D2[K:clef=bass] .F,,.F,, | 
[V:1] _e//d//e//f//g//^f//g//a//.bz2zz2z | 
[V:2] [G,2_E2]zz2zz2z | 
[V:3] B,2zz2zz2z | 
[V:4] G,,2zz2zz2z | 
[V:1] .^f//e//f//g//a//g//a//b//.c'z2zz2z | 
[V:2] [A,2^F2]zz2zz2z | 
[V:3] [C2_E2]zz2zz2z | 
[V:4] A,,2zz2zz2z | 
[V:1] g//^f//g//a//b//a//b//c'//d'z2zz2z | 
[V:2] [B,2G2]zz2zz2z | 
[V:3] [B,2D2]zz2zz2z | 
[V:4] B,,2zz2zz2z | 
[V:1] f'6^C3 | 
[V:2] [D3-d3][D3d3]B,/A,/.A,/.A,/A,/A,/ | 
[V:3] =B,/B,/B,/B,/B,/B,/B,3G,3 | 
[V:4] ^G,,/G,,/G,,/G,,/G,,/G,,/G,,3A,,3 | 
[V:1] D2zz2z D/F/A/d/e/f/ | 
[V:2] A,2zz2zz2z | 
[V:3] F,A,A, A,A,A, A,A,A, | 
[V:4] D,,2zz2zz2z | 
[V:1] f2ed2z (3D/F/A/ (3^c/d/e/ (5:4:5f//^g//a//f//d// | 
[V:2] G/B/^c/B/c/G/F2zz2z | 
[V:3] ^CA,A, A,A,A, A,A,A, | 
[V:4] A,,3D,2zz2z | 
[V:1] f2ed2z (3D/F/A/ (3^c/d/e/ (3^f/^g/a/ | 
[V:2] G/B/^c/B/c/G/ F.A.A AFD | 
[V:3] ^CA,A, A,A,A, A,F,D, | 
[V:4] A,,3D,2zz2z | 
[V:1] b/g/e/^c/g/e/ c/B/e-e//c//B//G// c//B//G//E// B-B//G//E//^C// | 
[V:2] ^C6-C3 | 
[V:3] [E,6G,6]-[E,3G,3] | 
[V:4] A,,6-A,,3 | 
[V:1] D2zD2zz2z |]  
[V:2] A,2zA,2zz2z |]  
[V:3] F,2zF,2zz2z |]  
[V:4] D,,2zD,2zz2z |]  


